X:345
T: Hussey's Penguin (with piano acc.)
C: BB
L: 1/8
Q: 1/8=350
M: 4/4
R: reel
V: 1 program 1 110 %fiddle
V: 2 volume=70 clef=bass m=D program 1 01
K: D
[V:1] "Bm"F2 BA FEDE | "Bm"FDB,D FBBA | "D"F2 AF "G"GABd | "A7"ceag "D"fdAG |
[V:2] B,,2[F2B2D2]F,,2[F2D2B2]| B,,2[F2B2D2]F,2[F2D2B2]|D,2[A2D2F2]G,,2[G2D2B2]|\
A,,2[G2C2E2]D,2[A2D2F2]|
%
[V:1] "Bm"F2 BA FEDE | "Bm"FEDB, "D"A,DDF | "A"AGFE "D"FAdB | "A7"AGEC "D"D4 :|
[V:2] B,,2[F2B2D2]F,,2[F2D2B2]|B,,2[F2B2D2]D,2[A2D2F2]|A,,2[G2E2C2]D,2[D2A2F2]|\
A,,2[A2C2E2]D,2[D2A2F2]:|
%
[V:1] "D"ABde faa^g | "Bm7"abaf "Em"efdB | "D"ABde faa^g | "Bm7"abaf "Em"e2 dB |
[V:2] D,2[D2A2F2]A,,2[D2F2A2]|B,,2[F2A2D2]E,2[B2E2G2]|D,2[D2A2F2]A,,2[D2F2A2]|\
B,,2[F2A2D2]E,2[B2E2G2]|
%
[V:1] "D"ABde faaf | "G"gefd "Em"efge | "D"fa a2 "Em"bage | "A"cdec "D"d4 :|
[V:2] D,2[D2A2F2]A,,2[D2F2A2]|G,,2[G2D2B2]E,2[B2E2G2]|D,2[D2A2F2]E,2[B2E2G2]|\
A,,2[A2E2C2]D,2[D2A2F2]:|

%%%%%%%%%%%%%%%%%%%%%%%%%%%%%%%%%%%%%%%%%%%

